<?xml version="1.0" encoding="UTF-8"?>
<map version="1.10" tiledversion="1.10.2" orientation="orthogonal" renderorder="right-down" width="16" height="16" tilewidth="16" tileheight="16" infinite="0" nextlayerid="7" nextobjectid="1">
 <tileset firstgid="1" source="lab1.tsx"/>
 <tileset firstgid="193" source="lab2.tsx"/>
 <tileset firstgid="391" source="lab3.tsx"/>
 <tileset firstgid="983" source="indoor.tsx"/>
 <layer id="6" name="Tile Layer 6" width="16" height="16">
  <data encoding="csv">
0,0,0,0,0,0,0,0,0,0,0,0,0,0,0,0,
0,0,0,0,0,0,0,0,0,0,0,0,0,0,0,0,
0,0,0,0,0,0,0,0,0,0,0,0,0,0,0,0,
0,0,0,0,0,0,0,0,0,0,0,0,0,0,0,0,
0,0,0,0,0,0,0,0,0,0,0,0,0,0,0,0,
0,0,0,0,0,0,0,0,0,0,0,0,0,0,0,0,
0,0,0,0,0,0,0,0,0,0,0,0,0,0,0,0,
0,0,0,0,0,0,0,0,0,0,0,0,0,0,0,0,
0,0,0,0,0,0,0,0,0,0,0,0,0,0,0,0,
0,0,0,0,0,0,0,0,0,0,0,0,0,0,0,0,
0,0,0,0,0,0,0,0,0,0,0,0,0,0,0,0,
0,0,0,0,0,0,0,0,0,0,0,0,0,0,0,0,
0,0,0,0,0,0,0,0,0,0,0,0,0,0,0,0,
0,0,0,0,0,0,146,146,146,146,0,0,0,0,0,0,
0,0,0,0,0,0,0,0,0,0,0,0,0,0,0,0,
0,0,0,0,0,0,0,0,0,0,0,0,0,0,0,0
</data>
 </layer>
 <layer id="1" name="Tile Layer 1" width="16" height="16">
  <data encoding="csv">
0,0,0,0,0,0,0,0,0,0,0,0,0,0,0,0,
0,1,3,3,3,3,3,3,3,3,3,3,3,3,5,0,
0,13,15,15,15,15,15,15,15,15,15,15,15,15,17,0,
0,13,30,31,31,32,15,15,15,30,32,30,32,15,17,0,
0,13,42,43,43,44,27,27,27,42,44,42,44,27,17,0,
0,13,311,312,313,311,312,313,311,312,313,311,312,313,17,0,
0,13,322,323,324,322,323,324,322,323,324,322,323,324,17,0,
0,13,311,312,313,311,312,313,311,312,313,311,312,313,17,0,
0,13,322,323,324,322,323,324,322,323,324,322,323,324,17,0,
0,13,311,312,313,311,312,313,311,312,313,311,312,313,17,0,
0,13,322,323,324,322,323,324,322,323,324,322,323,324,17,0,
0,13,311,312,313,311,312,313,311,312,313,311,312,313,17,0,
0,109,110,110,110,92,323,324,322,323,116,110,110,110,128,0,
0,0,0,0,0,13,0,0,0,0,17,0,0,0,0,0,
0,0,0,0,0,0,0,0,0,0,0,0,0,0,0,0,
0,0,0,0,0,0,0,0,0,0,0,0,0,0,0,0
</data>
 </layer>
 <layer id="2" name="Tile Layer 2" width="16" height="16">
  <data encoding="csv">
146,146,146,146,146,146,146,146,146,146,146,146,146,146,146,146,
146,0,0,0,0,0,0,0,0,0,0,0,0,0,0,146,
146,0,0,0,0,0,899,900,901,0,0,674,675,676,0,146,
146,0,0,0,0,0,488,489,0,0,0,0,0,0,0,146,
146,0,751,752,753,0,525,526,751,752,753,751,752,753,0,146,
146,0,714,715,716,0,0,0,788,789,790,788,789,790,0,146,
146,0,0,0,0,0,0,0,0,0,0,0,0,0,0,146,
146,0,0,0,0,0,0,0,0,0,0,0,0,0,0,146,
146,0,828,829,0,0,0,0,0,0,824,825,826,0,0,146,
146,0,865,866,867,0,0,0,0,0,861,862,863,0,0,146,
146,0,902,903,904,0,0,0,0,0,0,0,0,0,0,146,
146,0,939,940,941,0,0,0,0,0,0,0,0,0,0,146,
146,0,0,0,0,0,893,0,0,894,0,0,0,0,0,146,
146,146,146,146,146,0,930,0,0,931,0,146,146,146,146,146,
146,146,146,146,146,146,146,146,146,146,146,146,146,146,146,146,
146,146,146,146,146,146,146,146,146,146,146,146,146,146,146,146
</data>
 </layer>
 <layer id="4" name="Tile Layer 3" width="16" height="16">
  <data encoding="csv">
0,0,0,0,0,0,0,0,0,0,0,0,0,0,0,0,
0,0,0,0,0,0,0,0,0,0,0,0,0,0,0,0,
0,0,0,0,0,0,0,0,0,0,0,0,0,0,0,0,
0,0,0,0,0,0,0,0,0,0,0,0,0,0,0,0,
0,0,0,0,0,680,681,682,0,495,643,495,496,497,0,0,
0,0,0,0,0,717,718,719,0,0,0,0,0,0,0,0,
0,0,0,0,0,754,755,756,0,0,0,0,0,0,0,0,
0,0,0,0,0,791,792,793,0,0,0,0,0,0,0,0,
0,0,0,0,0,0,0,0,0,0,0,0,0,0,0,0,
0,0,0,0,0,0,0,0,0,0,0,0,0,0,0,0,
0,0,0,0,0,0,0,0,0,0,0,0,0,0,0,0,
0,0,0,0,0,0,0,0,0,0,0,0,0,0,0,0,
0,0,0,0,0,0,0,0,0,0,0,0,0,0,0,0,
0,0,0,0,0,0,0,0,0,0,0,0,0,0,0,0,
0,0,0,0,0,0,0,0,0,0,0,0,0,0,0,0,
0,0,0,0,0,0,0,0,0,0,0,0,0,0,0,0
</data>
 </layer>
 <layer id="3" name="4" width="16" height="16">
  <data encoding="csv">
0,0,0,0,0,0,0,0,0,0,0,0,0,0,0,0,
0,0,0,0,0,0,0,0,0,0,0,0,0,0,0,0,
0,0,0,0,0,0,423,496,497,0,0,0,0,0,0,0,
0,0,0,0,0,0,0,0,0,0,0,0,0,0,0,0,
0,0,645,997,423,0,0,0,0,0,0,0,997,0,0,0,
0,0,0,1004,0,0,0,0,0,0,0,0,1004,0,0,0,
0,0,0,0,0,0,0,0,0,0,0,0,0,0,0,0,
0,0,0,0,0,0,0,0,0,0,0,0,0,0,0,0,
0,0,0,0,0,0,0,0,0,0,0,0,0,0,0,0,
0,0,0,0,0,0,0,0,0,0,0,0,0,0,0,0,
0,0,0,0,0,0,0,0,0,0,0,0,0,0,0,0,
0,0,0,0,0,0,0,0,0,0,0,0,0,0,0,0,
0,0,0,0,0,0,0,0,0,0,0,0,0,0,0,0,
0,0,0,0,0,0,0,0,0,0,0,0,0,0,0,0,
0,0,0,0,0,0,0,0,0,0,0,0,0,0,0,0,
0,0,0,0,0,0,0,0,0,0,0,0,0,0,0,0
</data>
 </layer>
</map>
